icons/Settingsicons.svg

<svg width="16" height="16" viewBox="0 0 16 16" fill="currentColor" xmlns="http://www.w3.org/2000/svg">
<g clip-path="url(#clip0_4_1000)">
<path d="M13.3695 8.30261C13.1972 8.18614 13.1972 7.95319 13.3695 7.83671L14.8626 6.96314C14.9775 6.9049 15.0349 6.78842 14.9775 6.67195C14.92 6.32252 14.8052 5.97309 14.7478 5.6819C14.6903 5.56542 14.6329 5.50718 14.518 5.50718L12.7952 5.56542C12.5655 5.56542 12.4506 5.33247 12.5655 5.15775L13.4843 3.64356C13.5418 3.52709 13.5418 3.41061 13.4843 3.35237C13.2546 3.11942 13.0249 2.82823 12.7952 2.65351C12.6804 2.59528 12.5655 2.59528 12.5081 2.65351L11.015 3.58532C10.8427 3.7018 10.613 3.58532 10.613 3.35237L10.6704 1.54699C10.6704 1.43051 10.613 1.31404 10.4981 1.31404C10.211 1.19756 9.8664 1.13932 9.52183 1.02285C9.40698 1.02285 9.29212 1.08109 9.2347 1.13932L8.37328 2.71175C8.25842 2.88647 8.02871 2.88647 7.91386 2.71175L7.05244 1.13932C6.99501 1.02285 6.88016 0.964609 6.7653 1.02285C6.42074 1.08109 6.1336 1.19756 5.78903 1.2558C5.67418 1.31404 5.61675 1.37228 5.61675 1.48875L5.67418 3.29413C5.67418 3.52709 5.44446 3.64356 5.27218 3.52709L3.54935 2.53704C3.43449 2.4788 3.31964 2.4788 3.26221 2.53704L2.57308 3.2359C2.51565 3.35237 2.51565 3.46885 2.57308 3.52709L3.49192 5.09952C3.60678 5.27423 3.49192 5.50718 3.26221 5.50718L1.48195 5.44895C1.3671 5.44895 1.25224 5.50718 1.25224 5.62366C1.13738 5.91485 1.07996 6.26428 1.02253 6.55547C1.02253 6.67195 1.07996 6.78842 1.13738 6.84666L2.68793 7.72023C2.86022 7.83671 2.86022 8.06966 2.68793 8.18614L1.13738 9.05971C1.02253 9.11795 0.965101 9.23442 1.02253 9.3509C1.07996 9.70033 1.19481 9.99152 1.30967 10.3409C1.3671 10.4574 1.42452 10.5157 1.53938 10.5157L3.31964 10.4574C3.54935 10.4574 3.6642 10.6904 3.54935 10.8651L2.63051 12.4375C2.57308 12.554 2.57308 12.6705 2.63051 12.7287L3.31964 13.4276C3.43449 13.4858 3.54935 13.4858 3.60678 13.4276L5.15733 12.4958C5.32961 12.3793 5.55932 12.4958 5.55932 12.7287L5.50189 14.5341C5.50189 14.6506 5.55932 14.767 5.67418 14.767C5.96131 14.8835 6.30588 14.9418 6.65045 15C6.7653 15 6.88016 14.9418 6.93759 14.8835L7.799 13.3111C7.91386 13.1364 8.14357 13.1364 8.25842 13.3111L9.11984 14.8253C9.17727 14.9418 9.29212 15 9.40698 14.9418C9.75155 14.8835 10.0961 14.767 10.3832 14.6506C10.4981 14.5923 10.5555 14.5341 10.5555 14.4176V12.6705C10.5555 12.4375 10.7852 12.321 10.9575 12.4375L12.4506 13.3693C12.5655 13.4276 12.6804 13.4276 12.7378 13.3693C12.9675 13.1364 13.2546 12.9034 13.4269 12.6122C13.4843 12.4958 13.4843 12.3793 13.4269 12.321L12.5081 10.9816C12.3932 10.8069 12.5081 10.5739 12.7378 10.5739H14.4606C14.5755 10.5739 14.6903 10.5157 14.6903 10.3992C14.8052 10.0498 14.8626 9.75857 14.9775 9.40914C14.9775 9.29266 14.92 9.17619 14.8626 9.11795L13.3695 8.30261V8.30261Z" stroke="#3D3D3D" stroke-width="0.75" stroke-miterlimit="10"/>
<path d="M10.9575 5.91484C11.3595 6.49722 11.6467 7.25432 11.6467 8.06965C11.6467 10.108 10.0387 11.7387 8.02871 11.7387C6.01874 11.7387 4.41077 10.108 4.41077 8.06965C4.41077 6.03132 6.01874 4.40065 8.02871 4.40065C8.77527 4.40065 9.46441 4.6336 10.0387 4.98303" stroke="#3D3D3D" stroke-width="0.75" stroke-miterlimit="10" stroke-linecap="round"/>
</g>
<defs>
<clipPath id="clip0_4_1000">
<rect width="16" height="16" fill="white"/>
</clipPath>
</defs>
</svg>

<svg xmlns="http://www.w3.org/2000/svg" width="16" height="16" fill="currentColor" class="si si-Settingsicons" viewBox="0 0 16 16">
  <g stroke="#3D3D3D" stroke-miterlimit="10" stroke-width=".75" clip-path="url(#a)">
    <path d="M13.37 8.303a.275.275 0 0 1 0-.466l1.493-.874c.114-.058.172-.175.114-.291-.057-.35-.172-.699-.23-.99-.057-.117-.114-.175-.229-.175l-1.723.058a.261.261 0 0 1-.23-.407l.92-1.514c.057-.117.057-.233 0-.292-.23-.233-.46-.524-.69-.698-.115-.059-.23-.059-.287 0l-1.493.931c-.172.117-.402 0-.402-.233l.057-1.805c0-.116-.057-.233-.172-.233-.287-.116-.632-.175-.976-.291a.44.44 0 0 0-.287.116l-.862 1.573a.267.267 0 0 1-.46 0l-.86-1.573c-.058-.116-.173-.174-.288-.116-.344.058-.631.175-.976.233-.115.058-.172.116-.172.233l.057 1.805c0 .233-.23.35-.402.233l-1.723-.99c-.115-.058-.23-.058-.287 0l-.689.699c-.057.116-.057.233 0 .291L3.492 5.1a.261.261 0 0 1-.23.407l-1.78-.058c-.115 0-.23.058-.23.175-.115.29-.172.64-.23.931 0 .117.058.233.115.292l1.55.873a.275.275 0 0 1 0 .466l-1.55.874c-.114.058-.172.174-.114.29.057.35.172.642.287.99.057.117.115.176.23.176l1.78-.059c.23 0 .344.233.23.408l-.92 1.572c-.057.117-.057.234 0 .292l.69.699c.114.058.23.058.287 0l1.55-.932c.173-.117.402 0 .402.233l-.057 1.805c0 .117.057.233.172.233.287.117.632.175.976.233.115 0 .23-.058.288-.117l.861-1.572a.267.267 0 0 1 .46 0l.86 1.514c.058.117.173.175.288.117.345-.059.69-.175.976-.291.115-.059.173-.117.173-.233V12.67c0-.233.23-.35.402-.233l1.493.931c.114.059.23.059.287 0 .23-.233.517-.466.689-.757.057-.116.057-.233 0-.291l-.919-1.34a.261.261 0 0 1 .23-.407h1.723c.114 0 .23-.058.23-.175.114-.35.172-.64.286-.99a.45.45 0 0 0-.114-.291l-1.493-.815Z"/>
    <path stroke-linecap="round" d="M10.958 5.915a3.84 3.84 0 0 1 .689 2.155c0 2.038-1.608 3.669-3.618 3.669S4.41 10.108 4.41 8.069s1.608-3.668 3.618-3.668c.746 0 1.435.233 2.01.582"/>
  </g>
  <defs>
    <clipPath id="a">
      <path d="M0 0h16v16H0z"/>
    </clipPath>
  </defs>
</svg>
